static/logos/hellosign-wordmark-color.svg

<svg width="100" height="15" viewBox="0 0 100 15" fill="none" xmlns="http://www.w3.org/2000/svg">
<g clip-path="url(#clip0_1_2474)">
<path fill-rule="evenodd" clip-rule="evenodd" d="M2.48674 14.6343V12.2101H13.3958V14.6343H2.48674ZM11.0787 2.51311H4.8029L7.94129 6.85655L11.0787 2.51311ZM15.8201 0.0888672L7.94129 10.998L0.0625 0.0888672H15.8201Z" fill="#00B3E6"/>
<path d="M25.4339 12.2111V8.32017H21.7026V12.2111H19.4531V2.51411H21.7026V6.30905H25.4339V2.51208H27.6834V12.2091L25.4339 12.2111Z" fill="black"/>
<path d="M30.5234 12.2111V2.51416H36.6679V4.57578H32.7729V6.30911H36.3194V8.2677H32.7729V10.1596H36.6679V12.2111H30.5234Z" fill="black"/>
<path d="M39.3438 12.2111V2.51416H41.5922V10.1616H45.4831V12.2132L39.3438 12.2111Z" fill="black"/>
<path d="M47.375 12.2111V2.51416H49.6275V10.1616H53.5174V12.2132L47.375 12.2111Z" fill="black"/>
<path d="M59.8597 12.3697C56.8557 12.3697 54.9375 10.2131 54.9375 7.36763C54.9375 4.52217 56.9486 2.35248 59.9526 2.35248C62.9567 2.35248 64.8749 4.51005 64.8749 7.36763C64.8749 10.2252 62.8506 12.3697 59.8597 12.3697ZM59.8971 4.3646C58.3628 4.3646 57.3304 5.62116 57.3304 7.36763C57.3304 9.11409 58.3628 10.3717 59.8971 10.3717C61.4314 10.3717 62.4648 9.10096 62.4648 7.36763C62.4648 5.6343 61.4345 4.3646 59.8971 4.3646Z" fill="black"/>
<path d="M69.7364 12.3697C68.6385 12.3697 67.3122 11.9333 66.4688 11.3767L67.09 9.33935C67.8708 9.90803 68.89 10.2788 69.8031 10.2788C70.597 10.2788 70.9011 9.90803 70.9011 9.43227C70.9011 8.92722 70.6496 8.5848 69.1677 7.98985C67.4607 7.30197 66.8677 6.30904 66.8677 5.1444C66.8677 3.73026 68.0182 2.35248 70.2809 2.35248C71.3395 2.35248 72.4253 2.72318 72.994 3.10702L72.4233 5.11813C71.8667 4.7343 70.9677 4.32419 70.2789 4.32419C69.4587 4.32419 69.1283 4.70803 69.1283 5.105C69.1283 5.74036 69.6172 5.95248 70.8354 6.46763C72.6475 7.23531 73.19 8.10904 73.19 9.35248C73.19 10.901 72.0657 12.3697 69.7364 12.3697Z" fill="black"/>
<path d="M75.6016 12.2111V2.51416H77.8511V12.2111H75.6016Z" fill="black"/>
<path d="M89.0696 6.75955V11.3909C87.9574 12.0509 86.6841 12.3897 85.3908 12.3697C82.5464 12.3697 80.2969 10.3323 80.2969 7.36763C80.2969 4.40298 82.5726 2.35248 85.51 2.35248C86.7807 2.35248 87.7989 2.68379 88.7646 3.18682L87.8252 4.99894C87.1572 4.64727 86.4145 4.46124 85.6595 4.45652C83.7272 4.45652 82.6959 5.66056 82.6959 7.36763C82.6959 9.22015 83.9393 10.3717 85.5241 10.3717C86.2383 10.3717 86.5959 10.2919 86.9534 10.107V8.67773H85.007V6.75854L89.0696 6.75955Z" fill="black"/>
<path d="M99.7464 12.3959L93.8979 7.1434V12.2111H91.6484V2.37977L91.9515 2.32623L97.7212 7.53936V2.51209H99.9707V12.3566L99.7464 12.3959Z" fill="black"/>
</g>
<defs>
<clipPath id="clip0_1_2474">
<rect width="100" height="14.6465" fill="white"/>
</clipPath>
</defs>
</svg>

<svg xmlns="http://www.w3.org/2000/svg" width="426.667" height="64" fill="none" viewBox="0 0 100 15"><g clip-path="url(#a)"><path fill="#00B3E6" fill-rule="evenodd" d="M2.487 14.634V12.21h10.909v2.424H2.486Zm8.592-12.12H4.803L7.94 6.856l3.138-4.344ZM15.82.088 7.941 10.998.063.088H15.82Z" clip-rule="evenodd"/><path fill="#000" d="M25.434 12.211v-3.89h-3.731v3.89h-2.25V2.514h2.25V6.31h3.73V2.512h2.25v9.697l-2.25.002ZM30.523 12.211V2.514h6.145v2.062h-3.895v1.733h3.546v1.959h-3.546v1.892h3.895v2.051h-6.145ZM39.344 12.211V2.514h2.248v7.648h3.891v2.051l-6.14-.002ZM47.375 12.211V2.514h2.252v7.648h3.89v2.051l-6.142-.002ZM59.86 12.37c-3.004 0-4.922-2.157-4.922-5.002 0-2.846 2.01-5.016 5.015-5.016 3.004 0 4.922 2.158 4.922 5.016 0 2.857-2.024 5.002-5.015 5.002Zm.037-8.005c-1.534 0-2.567 1.256-2.567 3.003 0 1.746 1.033 3.004 2.567 3.004 1.534 0 2.568-1.271 2.568-3.004 0-1.734-1.03-3.003-2.568-3.003ZM69.736 12.37c-1.098 0-2.424-.437-3.267-.993l.621-2.038c.78.569 1.8.94 2.713.94.794 0 1.098-.371 1.098-.847 0-.505-.251-.847-1.733-1.442-1.707-.688-2.3-1.681-2.3-2.846 0-1.414 1.15-2.792 3.413-2.792 1.058 0 2.144.371 2.713.755l-.57 2.011c-.557-.384-1.456-.794-2.145-.794-.82 0-1.15.384-1.15.781 0 .635.488.847 1.706 1.363 1.813.767 2.355 1.641 2.355 2.884 0 1.549-1.124 3.018-3.454 3.018ZM75.602 12.211V2.514h2.25v9.697h-2.25ZM89.07 6.76v4.63a6.996 6.996 0 0 1-3.68.98c-2.844 0-5.093-2.038-5.093-5.002 0-2.965 2.276-5.016 5.213-5.016 1.27 0 2.289.332 3.255.835l-.94 1.812a4.712 4.712 0 0 0-2.166-.542c-1.932 0-2.963 1.204-2.963 2.91 0 1.853 1.243 3.005 2.828 3.005.714 0 1.072-.08 1.43-.265v-1.43h-1.947V6.76h4.063ZM99.746 12.396l-5.848-5.253v5.068h-2.25V2.38l.303-.054 5.77 5.213V2.512h2.25v9.845l-.225.039Z"/></g><defs><clipPath id="a"><path fill="#fff" d="M0 0h100v14.646H0z"/></clipPath></defs></svg>
